; generated by PrusaSlicer 2.4.1+win64 on 2022-03-17 at 18:22:32 UTC

; 

; external perimeters extrusion width = 0.60mm
; perimeters extrusion width = 0.50mm
; infill extrusion width = 0.50mm
; solid infill extrusion width = 0.50mm
; top infill extrusion width = 0.45mm
; first layer extrusion width = 0.42mm

; external perimeters extrusion width = 0.60mm
; perimeters extrusion width = 0.50mm
; infill extrusion width = 0.50mm
; solid infill extrusion width = 0.50mm
; top infill extrusion width = 0.45mm
; first layer extrusion width = 0.42mm

; external perimeters extrusion width = 0.60mm
; perimeters extrusion width = 0.50mm
; infill extrusion width = 0.50mm
; solid infill extrusion width = 0.50mm
; top infill extrusion width = 0.45mm
; first layer extrusion width = 0.42mm

; external perimeters extrusion width = 0.60mm
; perimeters extrusion width = 0.50mm
; infill extrusion width = 0.50mm
; solid infill extrusion width = 0.50mm
; top infill extrusion width = 0.45mm
; first layer extrusion width = 0.42mm

; external perimeters extrusion width = 0.60mm
; perimeters extrusion width = 0.50mm
; infill extrusion width = 0.50mm
; solid infill extrusion width = 0.50mm
; top infill extrusion width = 0.45mm
; first layer extrusion width = 0.42mm

; external perimeters extrusion width = 0.60mm
; perimeters extrusion width = 0.50mm
; infill extrusion width = 0.50mm
; solid infill extrusion width = 0.50mm
; top infill extrusion width = 0.45mm
; first layer extrusion width = 0.42mm

M73 P0 R224
M73 Q0 S227
M201 X1000 Y1000 Z200 E5000 ; sets maximum accelerations, mm/sec^2
M203 X200 Y200 Z12 E120 ; sets maximum feedrates, mm / sec
M204 P1250 R1250 T1250 ; sets acceleration (P, T) and retract acceleration (R), mm/sec^2
M205 X8.00 Y8.00 Z0.40 E4.50 ; sets the jerk limits, mm/sec
M205 S0 T0 ; sets the minimum extruding and travel feed rate, mm/sec
M107
;TYPE:Custom
M862.3 P "MK3S" ; printer model check
M862.1 P0.4 ; nozzle diameter check
M115 U3.10.1 ; tell printer latest fw version
G90 ; use absolute coordinates
M83 ; extruder relative mode
M104 S215 ; set extruder temp
M140 S60 ; set bed temp
M190 S60 ; wait for bed temp
M109 S215 ; wait for extruder temp
G28 W ; home all without mesh bed level
G80 ; mesh bed leveling
G1 Z0.2 F720
G1 Y-3 F1000 ; go outside print area
G92 E0
G1 X60 E9 F1000 ; intro line
G1 X100 E12.5 F1000 ; intro line
G92 E0
M221 S95

; Don't change E values below. Excessive value can damage the printer.

M907 E538 ; set extruder motor current
G21 ; set units to millimeters
G90 ; use absolute coordinates
M83 ; use relative distances for extrusion
M900 K0.05 ; Filament gcode LA 1.5
M900 K30 ; Filament gcode LA 1.0
M107
;LAYER_CHANGE
;Z:0.2
;HEIGHT:0.2
;BEFORE_LAYER_CHANGE
G92 E0.0
;0.2


G1 E-.8 F2100
G1 Z.4 F720
;AFTER_LAYER_CHANGE
;0.2
G1 X33.85 Y57.92 F10800
G1 Z.2 F720
G1 E.8 F2100
M204 S800
;TYPE:Skirt/Brim
;WIDTH:0.42
G1 F1200
G1 X95.315 Y23.93 E2.20226
G1 X99.174 Y22.315 E.13115
G1 X138.604 Y12.376 E1.27498
G1 X144.049 Y11.643 E.17228
M73 Q0 S226
G1 X144.67 Y11.643 E.01944
G1 X149.846 Y12.324 E.16369
G1 X150.445 Y12.485 E.01946
G1 X155.269 Y14.483 E.16371
G1 X155.741 Y14.745 E.01693
G1 X216.382 Y58.066 E2.33668
G1 X217.218 Y59.144 E.04278
G1 X217.377 Y60 E.02729
G1 X217.377 Y130 E2.1948
G1 X217.022 Y131.25 E.04076
G1 X185.48 Y182.25 E1.88018
G1 X180.576 Y188.66 E.25305
G1 X180.137 Y189.099 E.01945
M73 P0 R223
G1 X173.924 Y193.867 E.24556
G1 X173.387 Y194.177 E.01946
G1 X166.152 Y197.174 E.24554
G1 X165.552 Y197.335 E.01946
G1 X157.787 Y198.357 E.24557
G1 X157.167 Y198.357 E.01945
G1 X149.322 Y197.323 E.2481
G1 X90.223 Y187.493 E1.87846
G1 X89.704 Y187.344 E.01694
G1 X83.674 Y184.847 E.20464
G1 X83.137 Y184.537 E.01946
G1 X77.777 Y180.41 E.21209
G1 X50.544 Y154.803 E1.17207
G1 X48.674 Y152.417 E.09505
G1 X33.091 Y131.417 E.81992
G1 X32.623 Y130 E.04678
G1 X32.623 Y60 E2.1948
G1 X33.015 Y58.693 E.04278
G1 X33.806 Y57.961 E.0338
M204 S1000
; printing object Dazzling Inari-Blorr.stl_6 id:5 copy 0
;WIPE_START
G1 F8640
G1 X36.686 Y56.367 E-.76
;WIPE_END
G1 E-.04 F2100
G1 Z.6 F720
G1 X57.793 Y140.397 F10800
G1 Z.2 F720
G1 E.8 F2100
M204 S800
;TYPE:Perimeter
G1 F1200
G1 X59.243 Y140.206 E.04586
G1 X60.742 Y140.403 E.04742
G1 X62.14 Y140.982 E.04743
G1 X63.34 Y141.903 E.04743
G1 X64.261 Y143.103 E.04743
G1 X64.84 Y144.501 E.04743
G1 X65.037 Y146 E.04742
G1 X64.84 Y147.499 E.04742
G1 X64.261 Y148.897 E.04743
G1 X63.34 Y150.097 E.04743
G1 X62.14 Y151.018 E.04743
G1 X60.742 Y151.597 E.04743
G1 X59.243 Y151.794 E.04742
G1 X57.743 Y151.597 E.04742
G1 X56.346 Y151.018 E.04743
G1 X55.146 Y150.097 E.04743
G1 X54.225 Y148.897 E.04743
G1 X53.646 Y147.499 E.04743
G1 X53.449 Y146 E.04742
G1 X53.646 Y144.501 E.04742
G1 X54.225 Y143.103 E.04743
G1 X55.146 Y141.903 E.04743
G1 X56.346 Y140.982 E.04743
G1 X57.734 Y140.407 E.04711
M204 S1000
G1 X57.842 Y140.771 F10800
M204 S800
;TYPE:External perimeter
G1 F1200
G1 X59.243 Y140.586 E.04431
G1 X60.644 Y140.771 E.04431
G1 X61.95 Y141.312 E.04432
G1 X63.071 Y142.172 E.04431
G1 X63.931 Y143.293 E.04431
G1 X64.472 Y144.599 E.04432
G1 X64.657 Y146 E.04431
G1 X64.472 Y147.401 E.04431
G1 X63.931 Y148.707 E.04432
G1 X63.071 Y149.828 E.04431
G1 X61.95 Y150.688 E.04431
G1 X60.644 Y151.229 E.04432
G1 X59.243 Y151.414 E.04431
G1 X57.842 Y151.229 E.04431
G1 X56.536 Y150.688 E.04432
G1 X55.415 Y149.828 E.04431
G1 X54.555 Y148.707 E.04431
G1 X54.014 Y147.401 E.04432
G1 X53.829 Y146 E.04431
G1 X54.014 Y144.599 E.04431
G1 X54.555 Y143.293 E.04432
G1 X55.415 Y142.172 E.04431
G1 X56.536 Y141.312 E.04431
G1 X57.787 Y140.794 E.04244
M204 S1000
G1 X57.946 Y140.384 F10800
;WIPE_START
G1 F8640
G1 X59.243 Y140.586 E-.33969
G1 X60.644 Y140.771 E-.32628
G1 X61.02 Y140.927 E-.09403
;WIPE_END
G1 E-.04 F2100
G1 Z.6 F720
G1 X56.86 Y137.108 F10800
G1 Z.2 F720
G1 E.8 F2100
M204 S800
;TYPE:Perimeter
G1 F1200
G1 X59.243 Y136.794 E.07535
G1 X61.625 Y137.108 E.07535
G1 X63.846 Y138.028 E.07536
G1 X65.753 Y139.49 E.07535
G1 X67.215 Y141.397 E.07535
G1 X68.135 Y143.618 E.07536
G1 X68.449 Y146 E.07535
G1 X68.135 Y148.383 E.07535
G1 X67.215 Y150.603 E.07536
G1 X65.753 Y152.51 E.07535
G1 X63.846 Y153.972 E.07535
G1 X61.625 Y154.892 E.07536
G1 X59.243 Y155.206 E.07535
G1 X56.86 Y154.892 E.07535
G1 X54.64 Y153.972 E.07536
G1 X52.733 Y152.51 E.07535
G1 X51.271 Y150.603 E.07535
G1 X50.351 Y148.382 E.07536
G1 X50.037 Y146 E.07535
G1 X50.351 Y143.618 E.07535
G1 X51.271 Y141.397 E.07536
G1 X52.733 Y139.49 E.07535
G1 X54.64 Y138.028 E.07535
G1 X56.805 Y137.131 E.07348
M204 S1000
G1 X56.762 Y136.74 F10800
M204 S800
;TYPE:External perimeter
G1 F1200
G1 X59.243 Y136.414 E.07846
G1 X61.724 Y136.74 E.07846
G1 X64.036 Y137.698 E.07847
G1 X66.022 Y139.221 E.07846
G1 X67.545 Y141.207 E.07846
G1 X68.503 Y143.519 E.07847
G1 X68.829 Y146 E.07846
G1 X68.503 Y148.481 E.07846
G1 X67.545 Y150.793 E.07847
G1 X66.022 Y152.779 E.07846
G1 X64.036 Y154.302 E.07846
G1 X61.724 Y155.26 E.07847
G1 X59.243 Y155.586 E.07846
G1 X56.762 Y155.26 E.07846
G1 X54.45 Y154.302 E.07847
G1 X52.464 Y152.779 E.07846
G1 X50.941 Y150.793 E.07846
G1 X49.983 Y148.481 E.07847
G1 X49.657 Y146 E.07846
G1 X49.983 Y143.519 E.07846
G1 X50.941 Y141.207 E.07847
G1 X52.464 Y139.221 E.07846
G1 X54.45 Y137.698 E.07846
G1 X56.707 Y136.763 E.07659
M204 S1000
G1 X57.045 Y137.023 F10800
;WIPE_START
G1 F8640
G1 X59.243 Y136.414 E-.5912
G1 X59.968 Y136.509 E-.1688
;WIPE_END
G1 E-.04 F2100
G1 Z.6 F720
G1 X67.357 Y142.035 F10800
G1 Z.2 F720
G1 E.8 F2100
M204 S800
;TYPE:Solid infill
;WIDTH:0.422543
G1 F1200
G1 X63.522 Y138.199 E.17122
G1 X62.605 Y137.82 E.03131
G1 X67.423 Y142.638 E.21508
G1 X67.803 Y143.554 E.03131
G1 X61.689 Y137.44 E.27293
G1 X61.552 Y137.383 E.00469
G1 X61.026 Y137.314 E.01674
G1 X67.929 Y144.217 E.30816
G1 X68.01 Y144.835 E.01969
G1 X60.408 Y137.233 E.3394
G1 X59.789 Y137.151 E.01969
G1 X68.092 Y145.454 E.37064
G1 X68.164 Y146 E.01739
G1 X68.157 Y146.055 E.00176
G1 X59.188 Y137.086 E.40038
G1 X58.713 Y137.149 E.0151
G1 X62.357 Y140.793 E.16266
G1 X63.542 Y141.701 E.04713
G1 X64.45 Y142.886 E.04713
G1 X68.094 Y146.53 E.16266
G1 X68.032 Y147.004 E.0151
G1 X64.875 Y143.848 E.14089
G1 X65.115 Y144.427 E.01978
G1 X65.145 Y144.655 E.00726
G1 X67.969 Y147.478 E.12605
G1 X67.907 Y147.953 E.0151
G1 X65.227 Y145.273 E.11964
G1 X65.308 Y145.891 E.01968
G1 X67.82 Y148.403 E.11217
G1 X67.663 Y148.783 E.01297
G1 X65.271 Y146.391 E.1068
G1 X65.208 Y146.865 E.01511
G1 X67.506 Y149.163 E.10256
G1 X67.349 Y149.542 E.01297
G1 X65.146 Y147.34 E.09833
G1 X65.115 Y147.573 E.00744
G1 X65.035 Y147.766 E.00658
G1 X67.191 Y149.922 E.09624
G1 X67.034 Y150.302 E.01297
G1 X64.878 Y148.146 E.09625
G1 X64.721 Y148.525 E.01297
G1 X66.833 Y150.637 E.09429
G1 X66.6 Y150.941 E.01209
G1 X64.563 Y148.905 E.0909
G1 X64.508 Y149.039 E.00461
G1 X64.357 Y149.235 E.00779
G1 X66.367 Y151.245 E.0897
G1 X66.134 Y151.549 E.01209
G1 X64.124 Y149.539 E.08969
G1 X63.891 Y149.843 E.01209
G1 X65.901 Y151.852 E.08969
G1 X65.667 Y152.156 E.01209
G1 X63.659 Y150.147 E.08968
G1 X63.542 Y150.299 E.00604
G1 X63.39 Y150.416 E.00605
G1 X65.399 Y152.425 E.08968
G1 X65.095 Y152.658 E.01209
G1 X63.086 Y150.649 E.08969
G1 X62.782 Y150.881 E.01209
G1 X64.791 Y152.891 E.08969
G1 X64.488 Y153.124 E.01209
G1 X62.478 Y151.114 E.0897
G1 X62.282 Y151.265 E.00779
G1 X62.147 Y151.32 E.00461
G1 X64.184 Y153.357 E.09091
G1 X63.88 Y153.59 E.01209
G1 X61.768 Y151.478 E.09429
G1 X61.388 Y151.635 E.01297
G1 X63.545 Y153.791 E.09625
G1 X63.165 Y153.949 E.01297
G1 X61.009 Y151.793 E.09624
G1 X60.816 Y151.872 E.00658
G1 X60.583 Y151.903 E.00744
G1 X62.785 Y154.106 E.09833
G1 X62.406 Y154.263 E.01297
G1 X60.108 Y151.965 E.10256
G1 X59.634 Y152.028 E.01511
G1 X62.026 Y154.42 E.1068
G1 X61.646 Y154.577 E.01297
G1 X59.134 Y152.065 E.11217
G1 X58.516 Y151.984 E.01968
G1 X61.196 Y154.664 E.11964
G1 X60.721 Y154.726 E.0151
G1 X57.898 Y151.902 E.12606
G1 X57.67 Y151.872 E.00725
G1 X57.091 Y151.632 E.01978
G1 X60.398 Y154.94 E.14765
M204 S1000
;WIPE_START
G1 F8640
G1 X58.071 Y152.612 E-.76
;WIPE_END
G1 E-.04 F2100
G1 Z.6 F720
G1 X61.709 Y140.681 F10800
G1 Z.2 F720
G1 E.8 F2100
M204 S800
G1 F1200
G1 X58.239 Y137.211 E.1549
G1 X57.765 Y137.274 E.0151
G1 X60.588 Y140.098 E.12605
G1 X59.97 Y140.016 E.01968
G1 X57.29 Y137.336 E.11964
G1 X56.934 Y137.383 E.01133
G1 X56.839 Y137.423 E.00324
G1 X59.352 Y139.935 E.11217
G1 X59.243 Y139.921 E.00348
G1 X58.852 Y139.972 E.01244
G1 X56.46 Y137.58 E.1068
G1 X56.08 Y137.737 E.01297
G1 X58.378 Y140.035 E.10256
G1 X57.903 Y140.097 E.01511
G1 X55.701 Y137.894 E.09833
G1 X55.321 Y138.052 E.01297
G1 X57.477 Y140.208 E.09624
G1 X57.097 Y140.365 E.01297
G1 X54.941 Y138.209 E.09625
G1 X54.783 Y138.275 E.00543
G1 X54.606 Y138.41 E.00703
G1 X56.718 Y140.522 E.09429
G1 X56.338 Y140.68 E.01297
G1 X54.302 Y138.643 E.0909
G1 X53.998 Y138.876 E.01209
G1 X56.008 Y140.886 E.0897
G1 X55.704 Y141.119 E.01209
G1 X53.694 Y139.109 E.08969
G1 X53.391 Y139.342 E.01209
G1 X55.4 Y141.352 E.08969
G1 X55.096 Y141.584 E.01209
G1 X53.087 Y139.576 E.08968
G1 X52.935 Y139.692 E.00604
G1 X52.818 Y139.844 E.00604
G1 X54.827 Y141.853 E.08968
G1 X54.594 Y142.157 E.01209
G1 X52.585 Y140.148 E.08969
G1 X52.352 Y140.452 E.01209
G1 X54.362 Y142.461 E.08969
G1 X54.129 Y142.765 E.01209
G1 X52.119 Y140.755 E.0897
G1 X51.886 Y141.059 E.01209
G1 X53.923 Y143.095 E.09091
G1 X53.765 Y143.475 E.01297
G1 X51.653 Y141.363 E.09429
G1 X51.518 Y141.54 E.00703
G1 X51.452 Y141.698 E.00543
G1 X53.608 Y143.855 E.09625
G1 X53.45 Y144.234 E.01297
G1 X51.294 Y142.078 E.09624
G1 X51.137 Y142.458 E.01297
G1 X53.34 Y144.66 E.09833
G1 X53.278 Y145.135 E.01511
G1 X50.98 Y142.837 E.10256
G1 X50.823 Y143.217 E.01297
G1 X53.215 Y145.609 E.1068
G1 X53.164 Y146 E.01243
G1 X53.178 Y146.109 E.00348
G1 X50.666 Y143.597 E.11217
G1 X50.626 Y143.691 E.00324
G1 X50.579 Y144.047 E.01133
G1 X53.259 Y146.727 E.11964
G1 X53.341 Y147.345 E.01968
G1 X50.517 Y144.522 E.12606
G1 X50.454 Y144.996 E.0151
G1 X53.924 Y148.466 E.15491
M204 S1000
;WIPE_START
G1 F8640
G1 X51.597 Y146.139 E-.76
;WIPE_END
G1 E-.04 F2100
G1 Z.6 F720
G1 X50.241 Y145.319 F10800
G1 Z.2 F720
G1 E.8 F2100
M204 S800
G1 F1200
G1 X54.036 Y149.115 E.16943
G1 X54.944 Y150.299 E.04711
G1 X56.128 Y151.207 E.04711
G1 X59.773 Y154.851 E.16268
G1 X59.298 Y154.914 E.0151
G1 X50.329 Y145.945 E.40037
G1 X50.322 Y146 E.00176
G1 X50.394 Y146.546 E.0174
G1 X58.697 Y154.849 E.37063
G1 X58.078 Y154.767 E.01969
G1 X50.476 Y147.165 E.33939
G1 X50.557 Y147.783 E.01969
G1 X57.46 Y154.686 E.30815
G1 X56.934 Y154.617 E.01673
G1 X56.797 Y154.56 E.0047
G1 X50.683 Y148.446 E.27292
G1 X51.063 Y149.363 E.03131
G1 X55.88 Y154.18 E.21506
G1 X54.964 Y153.801 E.03131
G1 X51.129 Y149.965 E.1712
M204 S1000
; stop printing object Dazzling Inari-Blorr.stl_6 id:5 copy 0
; printing object Dazzling Inari-Blorr.stl_5 id:4 copy 0
;WIPE_START
G1 F8640
G1 X53.456 Y152.293 E-.76
;WIPE_END
G1 E-.04 F2100
G1 Z.6 F720
G1 X91.506 Y159.455 F10800
G1 Z.2 F720
G1 E.8 F2100
M204 S800
;TYPE:Perimeter
;WIDTH:0.42
G1 F1200
G1 X92.066 Y158.103 E.04587
G1 X92.986 Y156.903 E.04743
G1 X94.187 Y155.982 E.04743
G1 X95.584 Y155.403 E.04743
G1 X97.084 Y155.206 E.04742
G1 X98.583 Y155.403 E.04742
G1 X99.98 Y155.982 E.04743
G1 X101.181 Y156.903 E.04743
G1 X102.101 Y158.103 E.04743
G1 X102.68 Y159.501 E.04743
G1 X102.877 Y161 E.04742
G1 X102.68 Y162.499 E.04742
G1 X102.101 Y163.897 E.04743
G1 X101.181 Y165.097 E.04743
M73 Q0 S225
G1 X99.98 Y166.018 E.04743
G1 X98.583 Y166.597 E.04743
G1 X97.084 Y166.794 E.04742
G1 X95.584 Y166.597 E.04742
G1 X94.187 Y166.018 E.04743
G1 X92.986 Y165.097 E.04743
G1 X92.066 Y163.897 E.04743
G1 X91.487 Y162.499 E.04743
G1 X91.29 Y161 E.04742
G1 X91.485 Y159.511 E.0471
M204 S1000
G1 X91.854 Y159.599 F10800
M204 S800
;TYPE:External perimeter
G1 F1200
G1 X92.395 Y158.293 E.04432
G1 X93.255 Y157.172 E.04431
G1 X94.377 Y156.312 E.04431
G1 X95.682 Y155.771 E.04432
G1 X97.084 Y155.586 E.04431
G1 X98.485 Y155.771 E.04431
G1 X99.79 Y156.312 E.04432
G1 X100.912 Y157.172 E.04431
G1 X101.772 Y158.293 E.04431
G1 X102.313 Y159.599 E.04432
G1 X102.497 Y161 E.04431
G1 X102.313 Y162.401 E.04431
G1 X101.772 Y163.707 E.04432
G1 X100.912 Y164.828 E.04431
G1 X99.79 Y165.688 E.04431
G1 X98.485 Y166.229 E.04432
G1 X97.084 Y166.414 E.04431
G1 X95.682 Y166.229 E.04431
G1 X94.377 Y165.688 E.04432
G1 X93.255 Y164.828 E.04431
G1 X92.395 Y163.707 E.04431
G1 X91.854 Y162.401 E.04432
G1 X91.67 Y161 E.04431
G1 X91.846 Y159.658 E.04243
M204 S1000
G1 X91.571 Y159.316 F10800
;WIPE_START
G1 F8640
G1 X92.395 Y158.293 E-.33976
G1 X93.255 Y157.172 E-.32633
G1 X93.578 Y156.924 E-.0939
;WIPE_END
G1 E-.04 F2100
G1 Z.6 F720
G1 X73.702 Y154.735 F10800
G1 Z.2 F720
G1 E.8 F2100
M204 S800
;TYPE:Perimeter
G1 F1200
G1 X76.12 Y148.897 E.19814
G1 X79.967 Y143.883 E.19814
G1 X84.98 Y140.037 E.19814
G1 X90.819 Y137.619 E.19814
G1 X97.084 Y136.794 E.19812
G1 X103.348 Y137.619 E.19812
G1 X109.187 Y140.037 E.19814
G1 X114.2 Y143.883 E.19814
G1 X118.047 Y148.897 E.19814
G1 X120.465 Y154.735 E.19814
G1 X121.29 Y161 E.19812
G1 X120.465 Y167.265 E.19812
G1 X118.047 Y173.103 E.19814
G1 X114.2 Y178.117 E.19814
G1 X109.187 Y181.963 E.19814
G1 X103.348 Y184.381 E.19814
G1 X97.084 Y185.206 E.19812
G1 X90.819 Y184.381 E.19812
G1 X84.98 Y181.963 E.19814
G1 X79.967 Y178.117 E.19814
G1 X76.12 Y173.103 E.19814
G1 X73.702 Y167.265 E.19814
G1 X72.877 Y161 E.19812
G1 X73.695 Y154.795 E.19624
M204 S1000
G1 X73.335 Y154.637 F10800
M204 S800
;TYPE:External perimeter
G1 F1200
G1 X75.791 Y148.707 E.20125
G1 X79.698 Y143.614 E.20125
G1 X84.79 Y139.707 E.20125
G1 X90.721 Y137.251 E.20125
G1 X97.084 Y136.414 E.20123
G1 X103.447 Y137.251 E.20123
G1 X109.377 Y139.707 E.20125
G1 X114.469 Y143.614 E.20125
G1 X118.376 Y148.707 E.20125
M73 P0 R222
G1 X120.832 Y154.637 E.20125
G1 X121.67 Y161 E.20123
G1 X120.832 Y167.363 E.20123
G1 X118.376 Y173.293 E.20125
G1 X114.469 Y178.386 E.20125
G1 X109.377 Y182.293 E.20125
G1 X103.447 Y184.749 E.20125
G1 X97.084 Y185.586 E.20123
G1 X90.721 Y184.749 E.20123
G1 X84.79 Y182.293 E.20125
G1 X79.698 Y178.386 E.20125
G1 X75.791 Y173.293 E.20125
G1 X73.335 Y167.363 E.20125
G1 X72.497 Y161 E.20123
